X:1
T:Waiting For the Rain
M:2/4
L:1/8
K:G
 dd| d/2 d3/2 ed| dB BB| AG GE| D2 D2| G/2 G3/2 GA| BB AG| A4-| A z|\
 B2| dd e3/2 d/2| dB BB| AG GE| D2 G2| Bd BG| A/2 c3/2 AF| G4-| G z|\
 BB| cc cd| ee e3/2 e/2| ed dB| d2 B2| Bd dd| ed d3/2 B/2| A4-| A z|\
 dd| dd ed| dB BB| AG G3/2 E/2| D2 B2| Bd BG| A/2 c3/2 AF| G4-| G z||\
